X:1
T:Title
%%score { ( 1 4 5 ) | ( 2 3 ) }
L:1/8
M:3/4
K:F
V:1 treble nm="Grand Piano"
V:4 treble 
V:5 treble 
V:2 bass 
V:3 bass 
V:1
 z2 z[Q:1/4=100] C FG | [CA]3 A BF | [CA]3 A cB | [B,G]3 B A_A |[M:3/8] [CA]3 | A[=B,A]D | %6
[M:3/4] D3 D EF | [CEG]3 G ce | d3 A [F=B]B |[M:3/8] [Ec]3 | cd[CFA] |[M:3/4] [Ac]4 z2 | [EB]4 z2 | %13
 [Ge]4 z2 | [FA]4 z2 | [CA]3 A BF | [CA]3 A cB | [B,G]3 B G_A | [CA]3 c d[CFA] | [Ac]4 z2 | %20
 [FB]4 z2 | [Fc]3 [FA] [FA]<[EG] |[M:3/8] [CF]3 |] %23
V:2
 z2 z A, A,B, | F,,C, F,C D^C | F,,C, F,C ED | C,,C, E,D [C,C]=B, |[M:3/8] F,,C,F, | C z =B, | %6
[M:3/4] [F,G,=B,]3 [F,G,B,] [E,G,C][D,B,D] | C,3[K:treble] E EG | F3 F z F | %9
[M:3/8][K:bass] [C,G,]3 | AA[K:bass]F, |[M:3/4] F,F, z[K:treble] A A[K:bass]F, | G,G, G,2 E,2 | %13
 [C,C]C, z[K:treble] B[K:bass] C,C, | F,F, F,A, A,B, | F,C, F,C D^C | F,C, F,C ED | %17
 E,C, E,D [C,C]=B, | F,C, F,[K:treble]A A[K:bass]F, | F,F, z[K:treble] A A[K:bass]F, | %20
 D,D, D,2 [B,,B,]2 | [C,A,]3 [C,C] [C,C]<[C,B,] |[M:3/8] [F,A,]3 |] %23
V:3
 x6 | x6 | x6 | x6 |[M:3/8] x3 | z [G,,D,F,]2 |[M:3/4] x6 | x3[K:treble] x3 | [F,A,]4 G,2 | %9
[M:3/8][K:bass] x3 | x2[K:bass] x |[M:3/4] z2 F,2[K:treble] z2[K:bass] | x6 | %13
 z2 C,2[K:treble][K:bass] z2 | x6 | x6 | x6 | x6 | x3[K:treble] x2[K:bass] x | %19
 z2 F,2[K:treble] z2[K:bass] | x6 | x6 |[M:3/8] x3 |] %23
V:4
 x6 | x6 | x6 | x6 |[M:3/8] x3 | x3 |[M:3/4] x6 | x6 | x6 |[M:3/8] x3 | x3 |[M:3/4] FF z c d[CFA] | %12
 CC C2 [CGc]2 | z C z d [CAc][CGB] | CC CC FG | x6 | x6 | x6 | x6 | CC z c d[CFA] | %20
 B,B, B,2 [Fd]2 | x6 |[M:3/8] x3 |] %23
V:5
 x6 | x6 | x6 | x6 |[M:3/8] x3 | x3 |[M:3/4] x6 | x6 | x6 |[M:3/8] x3 | x3 |[M:3/4] z2 F2 z2 | x6 | %13
 z2 C2 z2 | x6 | x6 | x6 | x6 | x6 | z2 C2 z2 | x6 | x6 |[M:3/8] x3 |] %23

